X:1
T: The Maid of Bellevue
C:Jimmy Shand
R:Jig
Q:180
K:C
M:6/8
L:1/16
|:EF|G4G2 E2G2c2|e4e2 c2G2E2|F2E2F2 D2d2B2|c2e2d2 c2E2F2|
G4G2 E2G2c2|e4e2 c2G2E2|F2E2F2 D2d2B2|c2e2d2 c4:|
|:e2|f2e2f2 d2e2f2|e2c2G2 E2G2c2|B2G2d2 B2G2d2|c2G2e2 d4e2|
f2e2f2 d2g2f2|e2c2G2 E2G2c2|B2G2d2 B2G2d2|c2e2d2 c4:|
